!!!OTL: HOLZAEPFELBAEUMCHE
!!!ARE: Europa, Mitteleuropa, Deutschland, Hessen, Frankfurt; Wetzlar
!!!SCT: E1029
!!!YEM: Copyright 1995, estate of Helmut Schaffrath.
**kern
*ICvox
*Ivox
*M2/4
*k[b-]
*F:
=1
{4cc
8cc
8ff
=2
4cc
8a}
{8cc
=3
8cc
8cc
8b-
8g
=4
4a
8r}
{8f
=5
8cc
8cc
8cc
8ff
=6
8cc
8cc
8a}
{8cc
=7
8cc
8cc
8b-
8b-
=8
4f
4r}
==
!!!AGN: Tanz - Lied
!!!ONB: ESAC (Essen Associative Code) Database: ERK3
!!!AMT: simple duple
!!!AIN: vox
!!!EED: Helmut Schaffrath
!!!EEV: 1.0
*-
